X:209
T:Wheels of the World (reel), The 
B:CRE1.168 (Rothai an Domhain)
F:file ID: cre.1/209wheels
S:Ned Stapleton
M:C
L:1/8
Q:180
R:reel
K:G
"D modal"
dDD2 FAGF|ECC2 EFGA|dDD2 FAGF|EDCE D2FA|
dDD2 FAGF|ECC2 EFGc|AddB cBAG|ECGE D3||
B|dAdf afdf|ecgc acgc|dAdf afdf|edce d3A|
dAdf afdf|ecgc acge|abag efge|fage d3z|]

%%%

